img/icones/seguro.svg

<svg width="32" height="32" viewBox="0 0 32 32" fill="none" xmlns="http://www.w3.org/2000/svg">
<path d="M24 10.667H22.666V8.00001C22.6655 6.23215 21.963 4.53683 20.7131 3.28667C19.4631 2.0365 17.7679 1.3338 16 1.33301C14.2321 1.3338 12.5367 2.03647 11.2866 3.2866C10.0365 4.53674 9.3338 6.23205 9.33301 8.00001V10.667H8.00001C7.2935 10.6691 6.61651 10.9506 6.11684 11.4501C5.61716 11.9496 5.33538 12.6265 5.33301 13.333V26.667C5.33301 28.133 6.53301 29.333 8.00001 29.333H24C25.466 29.333 26.666 28.133 26.666 26.667V13.333C26.666 11.867 25.466 10.667 24 10.667ZM16 22.667C15.2933 22.6649 14.6162 22.3832 14.1165 21.8835C13.6168 21.3838 13.3351 20.7067 13.333 20C13.333 18.533 14.533 17.333 16 17.333C17.466 17.333 18.666 18.533 18.666 20C18.666 21.467 17.466 22.667 16 22.667ZM12 10.667V8.00001C12 5.78701 13.786 4.00001 16 4.00001C18.213 4.00001 20 5.78701 20 8.00001V10.667H12Z" fill="url(#paint0_linear_143_53)"/>
<defs>
<linearGradient id="paint0_linear_143_53" x1="16" y1="1.33301" x2="16" y2="29.333" gradientUnits="userSpaceOnUse">
<stop stop-color="#AC62CB"/>
<stop offset="1" stop-color="#75268B"/>
</linearGradient>
</defs>
</svg>

<svg width="32" height="32" fill="none" xmlns="http://www.w3.org/2000/svg">
  <path d="M24 10.667h-1.334V8A6.669 6.669 0 0 0 16 1.333 6.67 6.67 0 0 0 9.333 8v2.667H8a2.675 2.675 0 0 0-2.667 2.666v13.334c0 1.466 1.2 2.666 2.667 2.666h16c1.466 0 2.666-1.2 2.666-2.666V13.333c0-1.466-1.2-2.666-2.666-2.666Zm-8 12A2.675 2.675 0 0 1 13.333 20c0-1.467 1.2-2.667 2.667-2.667 1.466 0 2.666 1.2 2.666 2.667 0 1.467-1.2 2.667-2.666 2.667Zm-4-12V8c0-2.213 1.786-4 4-4 2.213 0 4 1.787 4 4v2.667h-8Z" fill="url(#a)"/>
  <defs>
    <linearGradient id="a" x1="16" y1="1.333" x2="16" y2="29.333" gradientUnits="userSpaceOnUse">
      <stop stop-color="#FFBF00"/>
      <stop offset="1" stop-color="#F2A50C"/>
    </linearGradient>
  </defs>
</svg>
